X:6
T: We Three Kings
L:1/8 
K:G
M: 6/8
R:Christmas
r: 32
|:B2 A G2 E | FGF E3 | B2 A G2 E | FGF E3 | 
G2 G A2 A | B2 B dcB | ABA G2 F | E3 F2 A :| 
|: G2 G G2 D | G2 E G3 | G2 G G2 D | G2 E G3 | 
G2 G G2 D | G2 E G3 | G2 G G2 D | G2 E G3 | 
G2 G A2 B | c2 B A2 B | G2 GG2 D | G2 E G3 :| 
W: Contemplate rapper jig?? 
Z: Mackin mit Peter 

